icons/error-square.svg

<svg xmlns="http://www.w3.org/2000/svg" fill="none" viewBox="0 0 24 24">
  <path fill="#000" fill-rule="evenodd" d="M15 20.25c2.886 0 5.25-2.364 5.25-5.25V9c0-2.886-2.364-5.25-5.25-5.25H9C6.114 3.75 3.75 6.114 3.75 9v6c0 2.886 2.364 5.25 5.25 5.25h6ZM21.75 15c0 3.714-3.036 6.75-6.75 6.75H9c-3.714 0-6.75-3.036-6.75-6.75V9c0-3.714 3.036-6.75 6.75-6.75h6c3.714 0 6.75 3.036 6.75 6.75v6Z" clip-rule="evenodd"/>
  <path fill="#000" d="M12.2 14c-.4 0-.8-.3-.8-.8v-6c0-.4.3-.7.8-.7s.8.3.8.8v6c-.1.4-.4.7-.8.7Zm0 3c-.1 0-.2 0-.3-.1-.1 0-.2-.1-.2-.2s-.2-.1-.2-.2c-.1-.1-.1-.2-.1-.2 0-.1 0-.2.1-.3 0-.1.1-.2.2-.2.1-.1.2-.1.2-.2.3-.1.6-.1.8.2l.2.2c0 .1.1.2.1.3 0 .2-.1.4-.2.5-.3.1-.4.2-.6.2Z"/>
</svg>

<svg width="24" height="24" viewBox="0 0 24 24" fill="none" xmlns="http://www.w3.org/2000/svg">
<path fill-rule="evenodd" clip-rule="evenodd" d="M15 20.25C17.8858 20.25 20.25 17.8858 20.25 15L20.25 9C20.25 6.11421 17.8858 3.75 15 3.75L9 3.75C6.11422 3.75 3.75 6.11421 3.75 9L3.75 15C3.75 17.8858 6.11421 20.25 9 20.25L15 20.25ZM21.75 15C21.75 18.7142 18.7142 21.75 15 21.75L9 21.75C5.28579 21.75 2.25 18.7142 2.25 15L2.25 9C2.25 5.28578 5.28579 2.25 9 2.25L15 2.25C18.7142 2.25 21.75 5.28579 21.75 9L21.75 15Z" fill="black"/>
<path d="M12.2 14C11.8 14 11.4 13.7 11.4 13.2L11.4 7.2C11.4 6.8 11.7 6.5 12.2 6.5C12.7 6.5 13 6.8 13 7.3L13 13.3C12.9 13.7 12.6 14 12.2 14Z" fill="black"/>
<path d="M12.2 17C12.1 17 12 17 11.9 16.9C11.8 16.9 11.7 16.8 11.7 16.7C11.7 16.6 11.5 16.6 11.5 16.5C11.4 16.4 11.4 16.3 11.4 16.3C11.4 16.2 11.4 16.1 11.5 16C11.5 15.9 11.6 15.8 11.7 15.8C11.8 15.7 11.9 15.7 11.9 15.6C12.2 15.5 12.5 15.5 12.7 15.8C12.8 15.9 12.8 15.9 12.9 16C12.9 16.1 13 16.2 13 16.3C13 16.5 12.9 16.7 12.8 16.8C12.5 16.9 12.4 17 12.2 17Z" fill="black"/>
</svg>
